X: 13849
T: Four Years Of Walking
R: barndance
M: 4/4
K: Aminor
|:A2 A2 AGAB|A2 F2 D2 EF|E2 F2 G2 AB|A2 F2 dfef|
A2 A2 AGAB|A2 F2 D2 EF|E2 FG F2 E2|D4 D4:|
|:f4 fefg|f2 fd A2 df|e2 A2 e2 eg|f2 A2 faga|
f4 fefg|f2 fd A2 df|e2 d2 A2 G2|A4 A4:|

